X: 081883
T: Hag's Grave
S: "The Roche Collection of Traditional Irish Music" [I/55/137]
L: 1/8
M: 4/4
R: reel
K: Ador
EGAB c2 BA | GEED GEED | EGAB cBce | dBeB cBca |
EGAB c2 BA | GEED GEED | EGAB cBce | dBGB BA Az ||
cBcd e2 ed | cBce dBGB | cBcd gfge | dBGB BA A2 |
c2 c>d e2 ed | c2 c>e dBGB | cedc BdcB | AGAB cBca |]
